libs/islamic-website/markets-page/src/assets/images/coin-logos/islm.svg

<svg fill="none" height="36" viewBox="0 0 36 36" width="36" xmlns="http://www.w3.org/2000/svg"><rect fill="#04d484" height="36" rx="18" width="36"/><path clip-rule="evenodd" d="m18 6c3.3135 0 6.3137 1.34327 8.4852 3.51487 2.1459 2.14593 3.4827 5.10093 3.514 8.36773v.0068l.0004.0445.0004.0661-.0008.1106v.0072c-.0313 3.2668-1.3681 6.2214-3.514 8.3673-2.1715 2.1716-5.1713 3.5149-8.4852 3.5149-3.3135 0-6.3137-1.3433-8.48525-3.5149-2.17152-2.1716-3.51475-5.1718-3.51475-8.4855 0-3.3136 1.34323-6.3135 3.51475-8.48511 2.17155-2.17159 5.17175-3.51449 8.48525-3.51449zm6.897 6.8968c.4549 0 .8962.0601 1.3164.1714-1.2375-1.2009-2.925-1.9405-4.7859-1.9405-1.8978 0-3.6159.769-4.8591 2.0126-1.2435 1.2437-2.0126 2.9618-2.0126 4.8597s.7691 3.616 2.0126 4.8593c1.2436 1.2436 2.9617 2.0126 4.8591 2.0126 1.8609 0 3.5488-.7396 4.7859-1.9405-.4198.1117-.8611.1714-1.316.1714-1.4089 0-2.685-.5712-3.608-1.4947-.9235-.9234-1.4946-2.1995-1.4946-3.6085 0-1.4089.5711-2.685 1.4946-3.6085.9226-.9227 2.1983-1.4943 3.6076-1.4943zm2.4056 2.6975c-.6158-.6153-1.4663-.9963-2.406-.9963-.9396 0-1.7902.381-2.4059.9963-.6158.6158-.9963 1.4664-.9963 2.4061s.3809 1.7903.9963 2.406c.6157.6154 1.4663.9963 2.4059.9963.9397 0 1.7902-.3809 2.406-.9963.6153-.6157.9963-1.4663.9963-2.406l-.0004-.0438c-.0113-.9227-.39-1.7563-.9959-2.3623zm-5.8754-6.1674c1.0687 0 2.0915.19556 3.0353.55309-1.7672-1.42558-4.0154-2.27919-6.4625-2.27919-2.8439 0-5.419 1.153-7.2828 3.0165-1.86349 1.8635-3.01645 4.4387-3.01645 7.2827 0 2.8444 1.15258 5.4192 3.01645 7.2831 1.8638 1.8635 4.4385 3.0165 7.2828 3.0165 2.4475 0 4.6953-.8536 6.4625-2.2796-.9438.3575-1.9666.5531-3.0353.5531-2.3671 0-4.5107-.9597-6.0616-2.511-1.5512-1.5513-2.5109-3.6946-2.5109-6.0617 0-2.3672.9597-4.5108 2.5109-6.0621 1.5509-1.5517 3.6945-2.5114 6.0616-2.5114z" fill="#fff" fill-rule="evenodd"/></svg>

<svg width="36" height="36" viewBox="0 0 36 36" fill="none" xmlns="http://www.w3.org/2000/svg">
<rect width="36" height="36" rx="18" fill="#04D484"/>
<path fill-rule="evenodd" clip-rule="evenodd" d="M18 6C21.3135 6 24.3137 7.34327 26.4852 9.51487C28.6311 11.6608 29.9679 14.6158 29.9992 17.8826V17.8894L29.9996 17.9339L30 18L29.9992 18.1106V18.1178C29.9679 21.3846 28.6311 24.3392 26.4852 26.4851C24.3137 28.6567 21.3139 30 18 30C14.6865 30 11.6863 28.6567 9.51475 26.4851C7.34323 24.3135 6 21.3133 6 17.9996C6 14.686 7.34323 11.6861 9.51475 9.51449C11.6863 7.3429 14.6865 6 18 6ZM24.897 12.8968C25.3519 12.8968 25.7932 12.9569 26.2134 13.0682C24.9759 11.8673 23.2884 11.1277 21.4275 11.1277C19.5297 11.1277 17.8116 11.8967 16.5684 13.1403C15.3249 14.384 14.5558 16.1021 14.5558 18C14.5558 19.8979 15.3249 21.616 16.5684 22.8593C17.812 24.1029 19.5301 24.8719 21.4275 24.8719C23.2884 24.8719 24.9763 24.1323 26.2134 22.9314C25.7936 23.0431 25.3523 23.1028 24.8974 23.1028C23.4885 23.1028 22.2124 22.5316 21.2894 21.6081C20.3659 20.6847 19.7948 19.4086 19.7948 17.9996C19.7948 16.5907 20.3659 15.3146 21.2894 14.3911C22.212 13.4684 23.4877 12.8968 24.897 12.8968ZM27.3026 15.5943C26.6868 14.979 25.8363 14.598 24.8966 14.598C23.957 14.598 23.1064 14.979 22.4907 15.5943C21.8749 16.2101 21.4944 17.0607 21.4944 18.0004C21.4944 18.9401 21.8753 19.7907 22.4907 20.4064C23.1064 21.0218 23.957 21.4027 24.8966 21.4027C25.8363 21.4027 26.6868 21.0218 27.3026 20.4064C27.9179 19.7907 28.2989 18.9401 28.2989 18.0004L28.2985 17.9566C28.2872 17.0339 27.9085 16.2003 27.3026 15.5943ZM21.4272 9.4269C22.4959 9.4269 23.5187 9.62246 24.4625 9.97999C22.6953 8.55441 20.4471 7.7008 18 7.7008C15.1561 7.7008 12.581 8.8538 10.7172 10.7173C8.85371 12.5808 7.70075 15.156 7.70075 18C7.70075 20.8444 8.85333 23.4192 10.7172 25.2831C12.581 27.1466 15.1557 28.2996 18 28.2996C20.4475 28.2996 22.6953 27.446 24.4625 26.02C23.5187 26.3775 22.4959 26.5731 21.4272 26.5731C19.0601 26.5731 16.9165 25.6134 15.3656 24.0621C13.8144 22.5108 12.8547 20.3675 12.8547 18.0004C12.8547 15.6332 13.8144 13.4896 15.3656 11.9383C16.9165 10.3866 19.0601 9.4269 21.4272 9.4269Z" fill="white"/>
</svg>
